!!!OTL: UEBERS JAHR MEIN SCHATZ
!!!ARE: Europa, Mitteleuropa, Deutschland; France, Weissenburg,
!!    Niedersteinbach
!!!SCT: E0790
!!!YEM: Copyright 1995, estate of Helmut Schaffrath.
**kern
*ICvox
*Ivox
*M4/4
*k[]
*C:
{8E
8G
=1
4c
4B
4A
8G
8E
=2
2G
4r}
{8G
8c
=3
4.B
8D
4F
4A
=4
2G
8E
8r}
{8G
8G
=5
4.B
8A
4G
4F#
=6
8G
8F#
4E
4r}
{8G
8G
=7
4.A
8D
4D
4E
=8
2.F}
{8E
8G
=9
4c
4B
4A
8G
8E
=10
2G
4r}
{8G
8c
=11
4.d
8c
4B
8A
8B
=12
2c
4r}
==
!!!AGN: Abschieds - Lied, Liebe; Matrosen - Lied
!!!ONB: ESAC (Essen Associative Code) Database: ERK2
!!!AMT: simple quadruple
!!!AIN: vox
!!!EED: Helmut Schaffrath
!!!EEV: 1.0
*-
